#include "stdosl.h"

//reads DiamodSquare file and outputs the height as color
shader DiamondReader ( 
        string DiamondSquare = "",
        point UV = 0.0,
        
        output color HeightColor = 0.0,
    ) 
{   
    //create Texture
    color colorHeight = texture(DiamondSquare, UV[0], 1 - UV[1], "wrap", "periodic");
    
    HeightColor = colorHeight;
}
